X:464
T: ES WOLLT EIN KOENIG WOHL REISEN
N: F0873
O: Europa, Mitteleuropa, Deutschland
R: erzaehlendes Volks - Lied, Ballade
M: 6/8
L: 1/8
K: F
A | c2ccAc | A3F2
F | G2GE2E | F2Ac2
A | c2Ac2A | c2AG2
G | G2GGFG | A2cA2

